findly-builder/apps/searchassist/src/assets/icons/sidemenu/new-icons/stop-words-active.svg

<svg width="16" height="16" viewBox="0 0 16 16" fill="none" xmlns="http://www.w3.org/2000/svg">
<path d="M2.49219 0C1.66966 0 0.992188 0.677469 0.992188 1.5V9.5C0.992188 10.3225 1.66966 11 2.49219 11H7.04297C7.02418 11.1665 6.99219 11.3286 6.99219 11.5C6.99219 13.9794 9.01283 16 11.4922 16C13.9715 16 15.9922 13.9794 15.9922 11.5C15.9922 9.94479 15.1968 8.57047 13.9922 7.76172V1.5C13.9922 0.677469 13.3147 0 12.4922 0H2.49219ZM2.49219 1H12.4922C12.7737 1 12.9922 1.21853 12.9922 1.5V7.27539C12.5208 7.10711 12.0203 7 11.4922 7C9.54097 7 7.88928 8.25836 7.26758 10H2.49219C2.21072 10 1.99219 9.78147 1.99219 9.5V1.5C1.99219 1.21853 2.21072 1 2.49219 1ZM11.4922 8C13.4311 8 14.9922 9.56108 14.9922 11.5C14.9922 13.4389 13.4311 15 11.4922 15C9.55327 15 7.99219 13.4389 7.99219 11.5C7.99219 9.56108 9.55327 8 11.4922 8ZM8.99219 11V12H13.9922V11H8.99219Z" fill="#0D6EFD"/>
<path d="M3.5 4V3H9.5V4H3.5Z" fill="#0D6EFD"/>
<path d="M3.5 6V5H8.5V6H3.5Z" fill="#0D6EFD"/>
<path d="M10.5 4V3H11.5V4H10.5Z" fill="#0D6EFD"/>
</svg>

<svg width="16" height="16" fill="none" xmlns="http://www.w3.org/2000/svg"><path d="M2.492 0c-.822 0-1.5.677-1.5 1.5v8c0 .822.678 1.5 1.5 1.5h4.551c-.019.166-.05.329-.05.5 0 2.48 2.02 4.5 4.5 4.5 2.479 0 4.5-2.02 4.5-4.5a4.5 4.5 0 0 0-2-3.738V1.5c0-.823-.678-1.5-1.5-1.5h-10Zm0 1h10c.282 0 .5.219.5.5v5.775a4.443 4.443 0 0 0-1.5-.275C9.541 7 7.89 8.258 7.268 10H2.492a.493.493 0 0 1-.5-.5v-8c0-.281.219-.5.5-.5Zm9 7c1.94 0 3.5 1.561 3.5 3.5s-1.56 3.5-3.5 3.5a3.492 3.492 0 0 1-3.5-3.5c0-1.939 1.561-3.5 3.5-3.5Zm-2.5 3v1h5v-1h-5Z" fill="#0D6EFD"/><path d="M3.5 4V3h6v1h-6Zm0 2V5h5v1h-5Zm7-2V3h1v1h-1Z" fill="#0D6EFD"/></svg>
